!!!!SEGMENT: pl-cz--d-ii-28--001_elsner-jozef--missa-f-op-85-kyrie.krn
!!!cenid: 18xx:174
!!!COM: Elsner, Józef
!!!COM-rismid: pe30000957
!!!CDT: 1769/06/01-1854/04/18
!!!CNT: Polish
!!!OPR: Missa F op. 85
!!!OTL: Kyrie
!!!OMV: 001
!!!PDT: 1847
!!!AGN: Sacred; Mass
!!!SMS-siglum: PL-CZ
!!!SMS-shelfmark: D II-28
!!!SMS-shelfwork: 001-001 M
!!!NIFC-rismid:
!!!URL-scan: http://repozytorium.nifc.pl/skany/pl-cz-nut--dii-28
!!!ONB-nifc: UWAGA: części Mszy: Kyrie, Gloria, Sanctus, Benedictus, Agnus Dei
!!!key:
**kern	**kern	**kern	**text	**kern	**text	**kern	**text
*part4	*part4	*part3	*part3	*part2	*part2	*part1	*part1
*staff5	*staff4	*staff3	*staff3	*staff2	*staff2	*staff1	*staff1
*Iorgan	*Iempty	*Ibass	*	*Itenor	*	*Ialto	*
*I"Organo	*	*I"Basso	*	*I"Tenori	*	*I"Alto	*
*I'Org.	*	*I'B	*	*I'T	*	*I'A	*
*clefF4	*clefG2	*clefF4	*	*clefC4	*	*clefC4	*
*k[b-]	*k[b-]	*k[b-]	*	*k[b-]	*	*k[b-]	*
*F:	*F:	*F:	*	*F:	*	*F:	*
*M2/4	*M2/4	*M2/4	*	*M2/4	*	*M2/4	*
=1	=1	=1	=1	=1	=1	=1	=1
!	!LO:TX:a:t=dolce	!	!	!	!	!LO:TX:a:t=Missa brevis\nAndantino	!
((2FF/ 2F	4a\ 4cc	2r	.	2r	.	2r	.
.	(8.g#X\L 8.bn	.	.	.	.	.	.
.	16a\Jk) 16cc	.	.	.	.	.	.
=2	=2	=2	=2	=2	=2	=2	=2
2FF/)) 2F	4a\ 4cc	2r	.	2r	.	2r	.
.	(8.b-X\L 8.dd	.	.	.	.	.	.
.	16a\Jk) 16cc	.	.	.	.	.	.
=3	=3	=3	=3	=3	=3	=3	=3
4FF/ 4F	16a\LL 16cc	2r	.	2r	.	2r	.
.	16b-\ 16dd	.	.	.	.	.	.
.	16g\ 16ee	.	.	.	.	.	.
.	(16a\JJ 16ff	.	.	.	.	.	.
*	*^	*	*	*	*	*	*
4CC/ 4C	16ff/LL)	4g\ 4b-	.	.	.	.	.	.
.	16ee/	.	.	.	.	.	.	.
.	16dd/	.	.	.	.	.	.	.
.	16ee/JJ	.	.	.	.	.	.	.
=4	=4	=4	=4	=4	=4	=4	=4	=4
4FF/ 4F	8ff/	8f\ 8a	2r	.	2r	.	2r	.
.	8ryy	8f/L 8a	.	.	.	.	.	.
4r	4ryy	8g/ 8b-	.	.	.	.	.	.
.	.	8g#X/J 8bn	.	.	.	.	.	.
*	*v	*v	*	*	*	*	*	*
=5!|:	=5!|:	=5!|:	=5!|:	=5!|:	=5!|:	=5!|:	=5!|:
*	*	*	*	*^	*	*	*
((2FF/ 2F	4a/ 4cc	4F\	Ki-	4A/	4A\	Ki-	4c\	Ki-
.	8.g#X/L 8.bn	4F\	-ri-	8.G#X/L	8.G#\L	-ri-	8.Bn\L	-ri-
.	16a/Jk 16cc	.	.	16A/Jk	16A\Jk	.	16c\Jk	.
=6	=6	=6	=6	=6	=6	=6	=6	=6
2FF/)) 2F	4a/ 4cc	4F\	-e	4A/	4A\	-e-	4c\	-e
.	8.b-X/L 8.dd	4F\	e-	8.B-/L	8.B-\L	-e-	8.d\L	e-
.	16a/Jk 16cc	.	.	16A/Jk	16A\Jk	.	16c\Jk	.
=7	=7	=7	=7	=7	=7	=7	=7	=7
*	*^	*	*	*	*	*	*	*
4FF/ 4F	4b-/	4a/	(4F\	-lei-	2G/	2G\	-lei-	4B-\	-lei-
4EE/ 4E	16b-/LL	[4c\ 4d 4f	4E\)	.	.	.	.	16B-\LL	.
.	16a/	.	.	.	.	.	.	16A\	.
.	16b-/	.	.	.	.	.	.	16B-\	.
.	16cc/JJ	.	.	.	.	.	.	16c\JJ	.
=8	=8	=8	=8	=8	=8	=8	=8	=8	=8
4FF/ 4F	16a/LL	4c\] 4f	4F\	-son	4F/	4F\	-son	4A\	-son
.	16g/	.	.	.	.	.	.	.	.
.	16a/	.	.	.	.	.	.	.	.
.	16b-/JJ	.	.	.	.	.	.	.	.
4r	16a\LL 16cc	4ryy	4r	.	4ryy	4rc	.	4r	.
.	16b-\ 16dd	.	.	.	.	.	.	.	.
.	16g\ 16ee	.	.	.	.	.	.	.	.
.	16a\JJ 16ff	.	.	.	.	.	.	.	.
=9	=9	=9	=9	=9	=9	=9	=9	=9	=9
(2C\ 2G 2B-	16g\LL 16ee	2ryy	8.C/	Ki-	8.B-/	8.G\	Ki-	8.e\	Ki-
.	16bb-\	.	.	.	.	.	.	.	.
.	16gg\	.	.	.	.	.	.	.	.
.	16ff\JJ	.	16C/	-ri-	16B-/	16G\	-ri-	16e\	-ri-
.	16ee\LL	.	8.C/	-e	8.B-/	8.G\	-e	8.e\	-e
.	16cc\	.	.	.	.	.	.	.	.
.	16dd\	.	.	.	.	.	.	.	.
.	16ee\JJ	.	16C/	e-	16B-/	16G\	e-	16e\	e-
*	*v	*v	*	*	*	*	*	*	*
!!LO:LB:g=original
=10	=10	=10	=10	=10	=10	=10	=10	=10
8F\L 8A	16ff\LL	4F\	-lei-	4A/	4A\	-lei-	4f\	-lei-
.	16cc\	.	.	.	.	.	.	.
8A\) 8c	16aa\	.	.	.	.	.	.	.
.	16gg\JJ	.	.	.	.	.	.	.
8F\ 8A	16ff\LL	8F\	-son	8A/	8A\	-son	8f\	-son
.	16cc\	.	.	.	.	.	.	.
8A\J 8c	16aa\	8r	.	8r	8r	.	8r	.
.	16ff\JJ	.	.	.	.	.	.	.
=11	=11	=11	=11	=11	=11	=11	=11	=11
(2C\ 2G 2B-	16ee\LL	8.C/	Ki-	8.B-/	8.G\	Ki-	8.e\	Ki-
.	16bb-\	.	.	.	.	.	.	.
.	16gg\	.	.	.	.	.	.	.
.	16ff\JJ	16C/	-ri-	16B-/	16G\	-ri-	16e\	-ri-
.	16ee\LL	8.C/	-e	8.B-/	8.G\	-e	8.e\	-e
.	16cc\	.	.	.	.	.	.	.
.	16dd\	.	.	.	.	.	.	.
.	16ee\JJ	16C/	e-	16B-/	16G\	e-	16e\	e-
=12	=12	=12	=12	=12	=12	=12	=12	=12
8F\L) 8A	16ff\LL	4F\	-lei-	4A/	4A\	-lei-	4f\	-lei-
.	16cc\	.	.	.	.	.	.	.
8A\ 8c	16aa\	.	.	.	.	.	.	.
.	16gg\JJ	.	.	.	.	.	.	.
8F\ 8A	16ff\LL	8F\	-son	8A/	8A\	-son	8f\	-son
.	16cc\	.	.	.	.	.	.	.
8A\J 8c	16aa\	8r	.	8r	8r	.	8r	.
.	16gg\JJ	.	.	.	.	.	.	.
=13	=13	=13	=13	=13	=13	=13	=13	=13
8D\L 8F	16ff\LL	8.D\	Ki-	8.A/	8.A\	Ki-	8.f\	Ki-
.	16dd\	.	.	.	.	.	.	.
8F\ 8A	16aa\	.	.	.	.	.	.	.
.	16gg\JJ	16D\	-ri-	16A/	16A\k	-ri-	16f\	-ri-
8D\ 8F	16ff\LL	8.D\	-e	8.A/	8.A\	.	8.f\	-e
.	16dd\	.	.	.	.	.	.	.
8F\J 8A	16aa\	.	.	.	.	.	.	.
.	16gg\JJ	16D\	e-	16A/	16A\k	e-	16f\	e-
=14	=14	=14	=14	=14	=14	=14	=14	=14
*	*^	*	*	*	*	*	*	*
4BB-\ 4B-	(4dd/	(2f\ 2ff	4BB-/	-lei-	4d/	4d\	.	[2f\	-lei-
8.AA\L 8.A	8.cc#X/L	.	8.AA/L	.	8.c#X/L	8.c#\L	.	.	.
16BB-\Jk 16B-	16dd/Jk	.	16BB-/Jk	.	16d/Jk	16d\Jk	.	.	.
=15	=15	=15	=15	=15	=15	=15	=15	=15	=15
4BB-\ 4B-	8dd/) 8ff	8f\)	4BB-/	-son	4d/	4d\	-son	4f\]	-son
.	(16gg/LL 16bb-	8ryy	.	.	.	.	.	.	.
.	16ff/JJ 16aa	.	.	.	.	.	.	.	.
4BBB-/ 4BB-	16ee/LL 16gg	4ryy	8r	.	8r	8ryy	.	8r	.
.	16dd/ 16ff	.	.	.	.	.	.	.	.
.	16cc/ 16ee	.	8BB-/	e-	8B-/	8B-\	e-	8d\	e-
.	16b-/JJ 16dd	.	.	.	.	.	.	.	.
*	*v	*v	*	*	*	*	*	*	*
=16	=16	=16	=16	=16	=16	=16	=16	=16
2CC/ 2C	16a/LL) 16cc	2C/	-lei-	4A/	4A\	-lei-	4c\	-lei-
.	16f/	.	.	.	.	.	.	.
.	16dd/	.	.	.	.	.	.	.
.	16cc/JJ	.	.	.	.	.	.	.
.	16g/LL 16b-	.	.	4G/	4G\	.	4B-\	.
.	16e/	.	.	.	.	.	.	.
.	16cc/	.	.	.	.	.	.	.
.	16b-/JJ	.	.	.	.	.	.	.
=17	=17	=17	=17	=17	=17	=17	=17	=17
4DD/ 4D	8f/ 8a	4D\	-son	4F/	4F\	-son	4A\	-son
.	(16gg\LL 16bb-	.	.	.	.	.	.	.
.	16ff\JJ 16aa	.	.	.	.	.	.	.
4BBB-/ 4BB-	16ee\LL 16gg	8r	.	8r	8ryy	.	8r	.
.	16dd\ 16ff	.	.	.	.	.	.	.
.	16cc\ 16ee	8BB-/	e-	8B-/	8B-\	e-	8d\	e-
.	16b-\JJ) 16dd	.	.	.	.	.	.	.
=18	=18	=18	=18	=18	=18	=18	=18	=18
((2CC/ 2C	16a/LL 16cc	2C/	-lei-	4A/	4A\	-lei-	4c\	-lei-
.	16f/	.	.	.	.	.	.	.
.	16dd/	.	.	.	.	.	.	.
.	16cc/JJ	.	.	.	.	.	.	.
.	16g/LL 16b-	.	.	4G/	4G\	.	4B-\	.
.	16e/	.	.	.	.	.	.	.
.	16cc/	.	.	.	.	.	.	.
.	16b-/JJ	.	.	.	.	.	.	.
=19	=19	=19	=19	=19	=19	=19	=19	=19
2CC/)) 2C	16f/LL 16a	2C/	.	4F/	4F\	.	4A\	.
.	16c/	.	.	.	.	.	.	.
.	16b-/	.	.	.	.	.	.	.
.	16a/JJ	.	.	.	.	.	.	.
.	16e/LL 16g	.	.	4E/	4E\	.	4G/	.
.	16c/	.	.	.	.	.	.	.
.	16e/ 16g 16cc	.	.	.	.	.	.	.
.	16b-/JJ	.	.	.	.	.	.	.
=20||	=20||	=20||	=20||	=20||	=20||	=20||	=20||;	=20||;
!!LO:LB:g=original
4FF/ 4F	16f/LL 16a	4F\	-son	4F/	4F\	-son	4F/	-son
.	16g/ 16b-	.	.	.	.	.	.	.
.	16a/ 16cc	.	.	.	.	.	.	.
.	16b-/JJ 16dd	.	.	.	.	.	.	.
4r	16a\LL 16cc	4r	.	4r	4ryy	.	4r	.
.	16b-\ 16dd	.	.	.	.	.	.	.
.	16g\ 16ee	.	.	.	.	.	.	.
.	16a\JJ 16ff	.	.	.	.	.	.	.
*	*	*	*	*v	*v	*	*	*
=21	=21	=21	=21	=21	=21	=21	=21
(2C\ 2G 2B-	16g\LL 16ee	2r	.	2r	.	2r	.
.	(16bb-\	.	.	.	.	.	.
.	16gg\	.	.	.	.	.	.
.	16ff\JJ	.	.	.	.	.	.
.	16ee\LL	.	.	.	.	.	.
.	16cc\	.	.	.	.	.	.
.	16dd\	.	.	.	.	.	.
.	16ee\JJ)	.	.	.	.	.	.
=22	=22	=22	=22	=22	=22	=22	=22
!	!LO:N:vis=4	!	!	!	!	!	!
8D\L) 8F\ 8\	8g\ 8ff	2r	.	2r	.	2r	.
8G\ 8B-\	8g\L 8b- 8ee	.	.	.	.	.	.
8A\	8f\ 8a 8dd	.	.	.	.	.	.
8AAJ/	8e\J 8g 8cc#X	.	.	.	.	.	.
=23	=23	=23	=23	=23	=23	=23	=23
*	*^	*	*	*^	*	*	*
*	*	*^	*	*	*	*	*	*	*
!	!LO:TX:a:t=Problem&colon; półnuta na raz	!	!	!	!	!	!	!	!	!
4D\	4f\ 4dd	2a/	4ryy	4D\	Chri-	4F/	4F\	Chri-	2r	.
8.E\L	8.cc#X/L	.	8.g\L	8.E\L	.	8.G/L	8.G\L	.	.	.
16D\Jk	16dd/Jk	.	16f\Jk	16D\Jk	-ste	16F/Jk	16F\Jk	-ste	.	.
*	*	*v	*v	*	*	*	*	*	*	*
=24	=24	=24	=24	=24	=24	=24	=24	=24	=24
4D/	4a/	4f\	4D\	e-	4F/	4F\	e-	4A\	Chri-
4C#X/	8.b-/L	4e\	4C#X\	-lei-	4E/	4E\	-lei-	8.B-\	-ste
.	16a/Jk	.	.	.	.	.	.	16A\	e-
=25	=25	=25	=25	=25	=25	=25	=25	=25	=25
4D/	2d\ 2dd	8f/L	4D\	.	8F/L	8F\L	.	(2d\	-lei-
.	.	8f#X/J	.	.	8F#X/	8F#\	.	.	.
4BB-/	.	8g/L	4BB-\	.	8G/	8G\	.	.	.
.	.	8g#X/J	.	.	8G#X/J	8G#\J	.	.	.
*	*v	*v	*	*	*	*	*	*	*
=26	=26	=26	=26	=26	=26	=26	=26	=26
2AA/	8e\L 8a 8cc#X	4AA/	-son	4A/	4A\	-son	4c#X\)	-son
.	8g\ 8ee	.	.	.	.	.	.	.
.	8f\ 8dd	4r	.	4r	4ryy	.	4r	.
.	8e\J 8cc#	.	.	.	.	.	.	.
=27	=27	=27	=27	=27	=27	=27	=27	=27
4D\	4f\ 4a 4dd	4D\	Chri-	4F/	4F\	Chri-	2r	.
8.E\L	8.g\L 8.a 8.cc#X	8.E\L	.	8.G/L	8.G\L	.	.	.
16D\Jk	16f\Jk 16a 16dd	16D\Jk	-ste	16F/Jk	16F\Jk	-ste	.	.
=28	=28	=28	=28	=28	=28	=28	=28	=28
4D\	4f/ 4a	4D\	e-	4F/	4F\	e-	4A\	Chri-
4C#X\	8.e/L 8.b-	4C#X\	-lei-	4E/	4E\	-lei-	8.B-\	-ste
.	16a/Jk	.	.	.	.	.	16A\	e-
=29	=29	=29	=29	=29	=29	=29	=29	=29
*	*^	*	*	*	*	*	*	*
4D\	2d\ 2dd	8f/L	4D\	.	8F/L	8F\L	.	2d\	-lei-
.	.	8f#X/	.	.	8F#X/	8F#\	.	.	.
4BB-/	.	8g/	4BB-/	.	8G/	8G\	.	.	.
.	.	8g#X/J	.	.	8G#X/J	8G#\J	.	.	.
*	*v	*v	*	*	*	*	*	*	*
=30	=30	=30	=30	=30	=30	=30	=30	=30
2AA/	8e\L 8a 8cc#X	4AA/	-son	8A/	8A\	-son	8c#X\	-son
.	8g\ 8ee	.	.	8G/L	8G\L	.	8e\L	.
.	8f\ 8dd	4AA/	e-	8F/	8F\	e-	8d\	.
.	8e\J 8cc#	.	.	8E/J	8E\J	.	8c#\J	e-
=31	=31	=31	=31	=31	=31	=31	=31	=31
2AA/	8f\L 8dd	2AA/	-lei-	8F/L	8F\L	-lei-	8d\L	.
.	8a\ 8ff	.	.	8A/	8A\	.	8f\	-lei-
.	8g\ 8ee	.	.	8G/	8G\	.	8e\	.
.	8f\J 8dd	.	.	8F/J	8F\J	.	8d\J	.
=32	=32	=32	=32	=32	=32	=32	=32	=32
!!LO:PB:g=original
4AA/	4e\ 4cc#X	4AA/	-son	4E/	4E\	-son	4c#X\	-son
4G\	4a\ 4cc# 4ee	4G\	Chri-	4A/	4A\	Chri-	4c#\	Chri-
*	*	*	*	*v	*v	*	*	*
=33	=33	=33	=33	=33	=33	=33	=33
4F\	4a\ 4dd	4F\	-ste	4A\	-ste	4d\	-ste
4D\	4a\ 4dd 4ff	4D\	e-	4A\	e-	4f\	e-
=34	=34	=34	=34	=34	=34	=34	=34
*	*^	*	*	*	*	*	*
2G\	2g\ 2b-	8ff/L	2G\	-lei-	2B-\	-lei-	8f\L	-lei-
.	.	8ee/	.	.	.	.	8e\	.
.	.	8gg/	.	.	.	.	8g\	.
.	.	8ee/J	.	.	.	.	8e\J	.
*	*v	*v	*	*	*	*	*	*
=35	=35	=35	=35	=35	=35	=35	=35
4A\	4f\ 4a 4dd	4.F\	.	4.A\	.	4d\	.
4AA/	4e\ 4a 4cc#X	.	.	.	.	4c#X\	.
.	.	8E\	.	8G\	.	.	.
=36	=36	=36	=36	=36	=36	=36	=36
4D\	4f/ 4a 4dd	4D\	-son	4F/	-son	4d\	-son
4GG/	4d/ 4g 4b-	4GG/	e-	4G/	e-	4B-\	e-
=37	=37	=37	=37	=37	=37	=37	=37
*	*^	*	*	*	*	*	*
2AA/	4d\ 4f	2a/	2AA/	-lei-	8F/L	-lei-	2A\	-lei-
.	.	.	.	.	8D/	.	.	.
.	4c#X\ 4e 4g	.	.	.	8C#X/	.	.	.
.	.	.	.	.	8E/J	.	.	.
*	*v	*v	*	*	*	*	*	*
=38	=38	=38	=38	=38	=38	=38	=38
2DD/ 2D	8d/L 8f	4.C/	-son	4.D/	-son	4.D/	-son
.	8f/ 8a	.	.	.	.	.	.
.	8e/ 8g	.	.	.	.	.	.
.	8d/J 8f	8r	.	8r	.	8r	.
=39	=39	=39	=39	=39	=39	=39	=39
2CC/ 2C	(8e/L 8g	2r	.	2r	.	2r	.
.	8g/ 8b-	.	.	.	.	.	.
.	8f/ 8a	.	.	.	.	.	.
.	8e/J) 8g	.	.	.	.	.	.
=40	=40	=40	=40	=40	=40	=40	=40
4FF/ 4F	8f/ 8a	2r	.	2r	.	2r	.
.	8f/L 8a	.	.	.	.	.	.
!	!LO:TX:a:t=Dal Segno al Coda	!	!	!	!	!	!
4r	8g/ 8b-	.	.	.	.	.	.
.	8g#X;/J 8b-X	.	.	.	.	.	.
=41:|!	=41:|!	=41:|!	=41:|!	=41:|!	=41:|!	=41:|!	=41:|!
!	!	!	!	!	!	!LO:TX:a:t=Coda	!
4FF/ 4F	(16f\LL 16a	4F\	son	4F/	son	4A\	son
.	16g\ 16b-	.	.	.	.	.	.
.	16a\ 16cc	.	.	.	.	.	.
.	(16b-\JJ 16dd	.	.	.	.	.	.
4r	16a\LL) 16cc	4r	.	4r	.	4r	.
.	16b-\ 16dd	.	.	.	.	.	.
.	16g\ 16ee	.	.	.	.	.	.
.	16a\JJ) 16ff	.	.	.	.	.	.
=42	=42	=42	=42	=42	=42	=42	=42
*	*^	*	*	*	*	*	*
4BBB-/ 4BB-	2f\ 2b-	4dd/	8.BB-/	Ki-	8.F/	Ki-	8.d\	Ki-
.	.	.	16BB-/	-ri-	16F/	-ri-	16d\	-ri-
8.DD/L 8.D	.	8.ff/L	8.D/	-e	8.F/	-e-	8.f\	-e
16BBB-/Jk 16BB-	.	16dd/Jk	16BB-/	e-	16F/	e-	16d\	e-
*	*v	*v	*	*	*	*	*	*
=43	=43	=43	=43	=43	=43	=43	=43
!!LO:LB:g=original
*	*	*	*	*^	*	*	*
4FF/ 4F	16f\LL 16a	4F\	-lei-	4A/	4A\	-lei-	4c\	-lei-
.	16g\ 16b-	.	.	.	.	.	.	.
.	16a\ 16cc	.	.	.	.	.	.	.
.	16b-\JJ 16dd	.	.	.	.	.	.	.
4r	16a\LL 16cc	8F\	-son	8F/	8F\	-son	8A\	-son
.	16b-\ 16dd	.	.	.	.	.	.	.
.	16g\ 16ee	8r	.	8r	8ryy	.	8r	.
.	16a\JJ 16ff	.	.	.	.	.	.	.
*	*	*	*	*v	*v	*	*	*
=44	=44	=44	=44	=44	=44	=44	=44
*	*^	*	*	*	*	*	*
4BBB-/ 4BB-	2f\ 2b-	4dd/	8.BB-/	Ki-	8.F/	Ki-	8.d\	Ki-
.	.	.	16BB-/	-ri-	16F/	-ri-	16d\	-ri-
8.DD/L 8.D	.	8.ff/L	8.BB-/	-e	8.F/	-e	8.f\	-e
16BBB-/Jk 16BB-	.	16dd/Jk	16BB-/	e-	16F/	e-	16d\	e-
*	*v	*v	*	*	*	*	*	*
=45	=45	=45	=45	=45	=45	=45	=45
2FF/ 2F	4c/ 4f 4a 4cc	2F\	-lei-	4A\	-lei-	4c\	-lei-
.	4d/ 4g#X 4bn	.	.	4G#X/	.	4Bn\	.
=46	=46	=46	=46	=46	=46	=46	=46
2FF/ 2F	4e/ 4gn 4b-X	2F\	.	4Gn/	.	4B-X\	.
.	4c/ 4f 4a	.	.	(4F/	.	4A\	.
=47	=47	=47	=47	=47	=47	=47	=47
*	*^	*	*	*	*	*	*
!	!LO:TX:a:t=Problem&colon; laseczki w obie strony	!	!	!	!	!	!	!
2CC/ 2C	2c\ 2g	4f/	2C/	.	4F/)	.	(2G/	.
.	.	4e/	.	.	4E/	.	.	.
*	*v	*v	*	*	*	*	*	*
=48	=48	=48	=48	=48	=48	=48	=48
8FFF/L 8FF	(2A/ 2c 2f	4.F\	-son	4.F/	-son	4.F/)	-son
8FF/ 8F	.	.	.	.	.	.	.
8CC/ 8C	.	.	.	.	.	.	.
8AAA/J 8AA	.	8r	.	8r	.	8r	.
=49	=49	=49	=49	=49	=49	=49	=49
4.FFF/ 4.FF	4.A/) 4.c 4.f	2r	.	2r	.	2r	.
8r	8r	.	.	.	.	.	.
==	==	==	==	==	==	==	==
*-	*-	*-	*-	*-	*-	*-	*-
!!!system-decoration: [(s1,s2,s3){(s4,s5)}]
!!!AIN: 1 alto 1 bass 1 organ 1 tenor
!!!ENC: Anna Matuszewska
!!!END: 2020-01-04
